X: 1
T: da Auld Resting Chair
C: Tom Anderson
R: air
Z: John Chambers <jc:trillian.mit.edu>
M: C
L: 1/8
K: G
D2 \
| "G"B3 c "D"A3 B | "G"G2 D2 B,2 G,2 | "C"C2 A2 "G"B,2 G2 | "A7"^CE AG "D"F2 D2 \
| "G"B3 c "D"A3 B | "G"G2 D2 B,2 G,2 | "C"C2 A2 "D7"D2 F2 | "G"G6 :|
d2 \
| "D7"cB AG "G"g3 d | "C"e2 g2 "G"d2 B2 | "C"c3 d "G"B2 G2 | "A7"E2 AG "D"F2 D2 \
| "D7"cB AG "G"g3 d | "C"e2 g2 "G"d2 B2 | "C"c2 de "D7"d2 F2 | "G"G6 ||
d2 \
| "D7"cB AG "G"g3 d | "C"e2 g2 "G"d2 B2 | "C"c3 d "G"B2 G2 |"A7"^CE AG "D"F2 D2 \
|"G"B3 c "D"A3 B | "G"G2 D2 B,2 G,2 | "C"C2 A,2 "D7"D2 F2 | "G"G6 |]
